X: 3204
T: JAMIES PAPER
Q: "Highland Schottische."
R: Schottische.
%R: shottish
B: James Kerr "Merry Melodies" v.3 p.24 #204
Z: 2016 John Chambers <jc:trillian.mit.edu>
M: C
L: 1/8
K: G
|:\
G>A (B<d) e>d (e<g) | G>AB>G (F<A)D2 |\
G>A (B<d) e>d (e<g) | d>ed>c (B<G)G2 ::\
g>ab>g e<g d<B | g>ab>g (f<a) d2 |\
g>ab>g e<g d<B | d>ed>c (B<G)G2 :|

%%sep 1 1 500
%%sep 1 1 500

